X:437
T:Bold Doherty
R:jig
D:Cliodhna & Cormac Begley: Tunes in the Church
Z:hn-jig-437
M:6/8
L:1/8
K:Em
DEF G2A | BGE GAB | ~c3 ~B3 | AGE EDB, |
DEF G2A | BEE GAB | cAc BGB |1 AGE E2B, :|2 AGE E2A ||
|: Bee edB | BAB G2A | Bee edB | BAB ~d3 |
Bee edB | BAB GAB | ~c3 ~B3 |1 AGE E2A :|2 AGE EDB, ||

